X:606
T:Miss Austin
R:Slow Strathspey
C:Archibald Allan of Forfar
B:The Athole Collection
M:C
L:1/8
Q:1/4=140
K:G Minor
^f|g<d d>c B>AG>A|B>c dc/B/ A2 D>^f|g<d d>c B>cd>c|BA/G/ AG/^F G2 G,:|
A|B>df>b A>cf>a|B>c dc/B/ A2 D>A|B>df>b A>cf>a|BA/G/ AG/^F/ G2 G,>A|
B>df>b A>cf>a|B>c e/d/c/B/ A2 D^f|ga/b/ a>g ^fg/a/ d>c|BA/G/ AG/^F/ G2 G,||

